static/img/kroki/9555725955c9a0149174c82f51cd4a86.svg

<?xml version="1.0" encoding="us-ascii" standalone="no"?><svg xmlns="http://www.w3.org/2000/svg" xmlns:xlink="http://www.w3.org/1999/xlink" contentStyleType="text/css" height="925px" preserveAspectRatio="none" style="width:409px;height:925px;" version="1.1" viewBox="0 0 409 925" width="409px" zoomAndPan="magnify"><defs/><g><!--class aws_apigateway_authorizer--><g id="elem_aws_apigateway_authorizer"><rect codeLine="22" fill="#3D176E" height="284.4609" id="aws_apigateway_authorizer" rx="2.5" ry="2.5" style="stroke:#000D19;stroke-width:0.5;" width="395" x="7" y="633.84"/><ellipse cx="78.25" cy="653.7345" fill="#ADD1B2" rx="11" ry="11" style="stroke:#181818;stroke-width:1.0;"/><path d="M81.2188,659.3752 Q80.6406,659.672 80,659.8127 Q79.3594,659.9689 78.6563,659.9689 Q76.1563,659.9689 74.8281,658.3283 Q73.5156,656.672 73.5156,653.547 Q73.5156,650.422 74.8281,648.7658 Q76.1563,647.1095 78.6563,647.1095 Q79.3594,647.1095 80,647.2658 Q80.6563,647.422 81.2188,647.7189 L81.2188,650.4377 Q80.5938,649.8595 80,649.5939 Q79.4063,649.3127 78.7813,649.3127 Q77.4375,649.3127 76.75,650.3908 Q76.0625,651.4533 76.0625,653.547 Q76.0625,655.6408 76.75,656.7189 Q77.4375,657.7814 78.7813,657.7814 Q79.4063,657.7814 80,657.5158 Q80.5938,657.2345 81.2188,656.6564 L81.2188,659.3752 Z " fill="#000000"/><text fill="#D9B8FF" font-family="Helvetica" font-size="17" lengthAdjust="spacing" textLength="234" x="103.75" y="659.6198">aws_apigateway_authorizer</text><line style="stroke:#000D19;stroke-width:0.5;" x1="8" x2="401" y1="673.6291" y2="673.6291"/><text fill="#D9B8FF" font-family="sans-serif" font-size="14" font-weight="bold" lengthAdjust="spacing" textLength="57" x="18" y="695.6242">api_link</text><text fill="#D9B8FF" font-family="sans-serif" font-size="14" lengthAdjust="spacing" textLength="48" x="75" y="695.6242">: string</text><text fill="#D9B8FF" font-family="sans-serif" font-size="14" font-weight="bold" lengthAdjust="spacing" textLength="166" x="18" y="721.9211">authorizer_auth_type</text><text fill="#D9B8FF" font-family="sans-serif" font-size="14" lengthAdjust="spacing" textLength="48" x="184" y="721.9211">: string</text><text fill="#D9B8FF" font-family="sans-serif" font-size="14" font-weight="bold" lengthAdjust="spacing" textLength="177" x="18" y="748.2179">authorizer_credentials</text><text fill="#D9B8FF" font-family="sans-serif" font-size="14" lengthAdjust="spacing" textLength="48" x="195" y="748.2179">: string</text><text fill="#D9B8FF" font-family="sans-serif" font-size="14" font-weight="bold" lengthAdjust="spacing" textLength="210" x="18" y="774.5148">authorizer_identity_source</text><text fill="#D9B8FF" font-family="sans-serif" font-size="14" lengthAdjust="spacing" textLength="48" x="228" y="774.5148">: string</text><text fill="#D9B8FF" font-family="sans-serif" font-size="14" font-weight="bold" lengthAdjust="spacing" textLength="325" x="18" y="800.8117">authorizer_identity_validation_expression</text><text fill="#D9B8FF" font-family="sans-serif" font-size="14" lengthAdjust="spacing" textLength="48" x="343" y="800.8117">: string</text><text fill="#D9B8FF" font-family="sans-serif" font-size="14" font-weight="bold" lengthAdjust="spacing" textLength="198" x="18" y="827.1086">authorizer_provider_arns</text><text fill="#D9B8FF" font-family="sans-serif" font-size="14" lengthAdjust="spacing" textLength="58" x="216" y="827.1086">: string[]</text><text fill="#D9B8FF" font-family="sans-serif" font-size="14" font-weight="bold" lengthAdjust="spacing" textLength="253" x="18" y="853.4054">authorizer_result_ttl_in_seconds</text><text fill="#D9B8FF" font-family="sans-serif" font-size="14" lengthAdjust="spacing" textLength="44" x="271" y="853.4054">: int64</text><text fill="#D9B8FF" font-family="sans-serif" font-size="14" font-weight="bold" lengthAdjust="spacing" textLength="124" x="18" y="879.7023">authorizer_type</text><text fill="#D9B8FF" font-family="sans-serif" font-size="14" lengthAdjust="spacing" textLength="48" x="142" y="879.7023">: string</text><text fill="#D9B8FF" font-family="sans-serif" font-size="14" font-weight="bold" lengthAdjust="spacing" textLength="110" x="18" y="905.9992">authorizer_uri</text><text fill="#D9B8FF" font-family="sans-serif" font-size="14" lengthAdjust="spacing" textLength="48" x="128" y="905.9992">: string</text></g><!--class aws_resource--><g id="elem_aws_resource"><rect codeLine="33" fill="#3D176E" height="74.0859" id="aws_resource" rx="2.5" ry="2.5" style="stroke:#000D19;stroke-width:0.5;" width="155" x="127" y="438.75"/><ellipse cx="142" cy="458.6445" fill="#ADD1B2" rx="11" ry="11" style="stroke:#181818;stroke-width:1.0;"/><path d="M144.9688,464.2852 Q144.3906,464.582 143.75,464.7227 Q143.1094,464.8789 142.4063,464.8789 Q139.9063,464.8789 138.5781,463.2383 Q137.2656,461.582 137.2656,458.457 Q137.2656,455.332 138.5781,453.6758 Q139.9063,452.0195 142.4063,452.0195 Q143.1094,452.0195 143.75,452.1758 Q144.4063,452.332 144.9688,452.6289 L144.9688,455.3477 Q144.3438,454.7695 143.75,454.5039 Q143.1563,454.2227 142.5313,454.2227 Q141.1875,454.2227 140.5,455.3008 Q139.8125,456.3633 139.8125,458.457 Q139.8125,460.5508 140.5,461.6289 Q141.1875,462.6914 142.5313,462.6914 Q143.1563,462.6914 143.75,462.4258 Q144.3438,462.1445 144.9688,461.5664 L144.9688,464.2852 Z " fill="#000000"/><text fill="#D9B8FF" font-family="Helvetica" font-size="17" lengthAdjust="spacing" textLength="113" x="161" y="464.5298">aws_resource</text><line style="stroke:#000D19;stroke-width:0.5;" x1="128" x2="281" y1="478.5391" y2="478.5391"/><text fill="#D9B8FF" font-family="sans-serif" font-size="14" font-weight="bold" lengthAdjust="spacing" textLength="26" x="138" y="500.5342">arn</text><text fill="#D9B8FF" font-family="sans-serif" font-size="14" lengthAdjust="spacing" textLength="48" x="164" y="500.5342">: string</text></g><!--class resource--><g id="elem_resource"><rect codeLine="36" fill="#3D176E" height="310.7578" id="resource" rx="2.5" ry="2.5" style="stroke:#000D19;stroke-width:0.5;" width="227" x="91" y="7"/><ellipse cx="159.75" cy="26.8945" fill="#ADD1B2" rx="11" ry="11" style="stroke:#181818;stroke-width:1.0;"/><path d="M162.7188,32.5352 Q162.1406,32.832 161.5,32.9727 Q160.8594,33.1289 160.1563,33.1289 Q157.6563,33.1289 156.3281,31.4883 Q155.0156,29.832 155.0156,26.707 Q155.0156,23.582 156.3281,21.9258 Q157.6563,20.2695 160.1563,20.2695 Q160.8594,20.2695 161.5,20.4258 Q162.1563,20.582 162.7188,20.8789 L162.7188,23.5977 Q162.0938,23.0195 161.5,22.7539 Q160.9063,22.4727 160.2813,22.4727 Q158.9375,22.4727 158.25,23.5508 Q157.5625,24.6133 157.5625,26.707 Q157.5625,28.8008 158.25,29.8789 Q158.9375,30.9414 160.2813,30.9414 Q160.9063,30.9414 161.5,30.6758 Q162.0938,30.3945 162.7188,29.8164 L162.7188,32.5352 Z " fill="#000000"/><text fill="#D9B8FF" font-family="Helvetica" font-size="17" lengthAdjust="spacing" textLength="71" x="185.25" y="32.7798">resource</text><line style="stroke:#000D19;stroke-width:0.5;" x1="92" x2="317" y1="46.7891" y2="46.7891"/><text fill="#D9B8FF" font-family="sans-serif" font-size="14" font-weight="bold" lengthAdjust="spacing" textLength="29" x="102" y="68.7842">age</text><text fill="#D9B8FF" font-family="sans-serif" font-size="14" lengthAdjust="spacing" textLength="66" x="131" y="68.7842">: duration</text><text fill="#D9B8FF" font-family="sans-serif" font-size="14" font-weight="bold" lengthAdjust="spacing" textLength="43" x="102" y="95.0811">atime</text><text fill="#D9B8FF" font-family="sans-serif" font-size="14" lengthAdjust="spacing" textLength="70" x="145" y="95.0811">: datetime</text><text fill="#D9B8FF" font-family="sans-serif" font-size="14" font-weight="bold" lengthAdjust="spacing" textLength="43" x="102" y="121.3779">ctime</text><text fill="#D9B8FF" font-family="sans-serif" font-size="14" lengthAdjust="spacing" textLength="70" x="145" y="121.3779">: datetime</text><text fill="#D9B8FF" font-family="sans-serif" font-size="14" font-weight="bold" lengthAdjust="spacing" textLength="14" x="102" y="147.6748">id</text><text fill="#D9B8FF" font-family="sans-serif" font-size="14" lengthAdjust="spacing" textLength="48" x="116" y="147.6748">: string</text><text fill="#D9B8FF" font-family="sans-serif" font-size="14" font-weight="bold" lengthAdjust="spacing" textLength="33" x="102" y="173.9717">kind</text><text fill="#D9B8FF" font-family="sans-serif" font-size="14" lengthAdjust="spacing" textLength="48" x="135" y="173.9717">: string</text><text fill="#D9B8FF" font-family="sans-serif" font-size="14" font-weight="bold" lengthAdjust="spacing" textLength="90" x="102" y="200.2686">last_access</text><text fill="#D9B8FF" font-family="sans-serif" font-size="14" lengthAdjust="spacing" textLength="66" x="192" y="200.2686">: duration</text><text fill="#D9B8FF" font-family="sans-serif" font-size="14" font-weight="bold" lengthAdjust="spacing" textLength="90" x="102" y="226.5654">last_update</text><text fill="#D9B8FF" font-family="sans-serif" font-size="14" lengthAdjust="spacing" textLength="66" x="192" y="226.5654">: duration</text><text fill="#D9B8FF" font-family="sans-serif" font-size="14" font-weight="bold" lengthAdjust="spacing" textLength="48" x="102" y="252.8623">mtime</text><text fill="#D9B8FF" font-family="sans-serif" font-size="14" lengthAdjust="spacing" textLength="70" x="150" y="252.8623">: datetime</text><text fill="#D9B8FF" font-family="sans-serif" font-size="14" font-weight="bold" lengthAdjust="spacing" textLength="43" x="102" y="279.1592">name</text><text fill="#D9B8FF" font-family="sans-serif" font-size="14" lengthAdjust="spacing" textLength="48" x="145" y="279.1592">: string</text><text fill="#D9B8FF" font-family="sans-serif" font-size="14" font-weight="bold" lengthAdjust="spacing" textLength="34" x="102" y="305.4561">tags</text><text fill="#D9B8FF" font-family="sans-serif" font-size="14" lengthAdjust="spacing" textLength="171" x="136" y="305.4561">: dictionary[string, string]</text></g><!--reverse link aws_resource to aws_apigateway_authorizer--><g id="link_aws_resource_aws_apigateway_authorizer"><path codeLine="48" d="M204.5,531.07 C204.5,561.5 204.5,589.03 204.5,633.63 " fill="none" id="aws_resource-backto-aws_apigateway_authorizer" style="stroke:#FFAF37;stroke-width:2.0;"/><polygon fill="none" points="204.5,513.07,198.5,531.07,210.5,531.07,204.5,513.07" style="stroke:#FFAF37;stroke-width:2.0;"/></g><!--reverse link resource to aws_resource--><g id="link_resource_aws_resource"><path codeLine="49" d="M204.5,336.17 C204.5,381.21 204.5,408.34 204.5,438.51 " fill="none" id="resource-backto-aws_resource" style="stroke:#FFAF37;stroke-width:2.0;"/><polygon fill="none" points="204.5,318.17,198.5,336.17,210.5,336.17,204.5,318.17" style="stroke:#FFAF37;stroke-width:2.0;"/></g><!--SRC=[XP9DRzim38Rl-HK2UWiM85ctfYbswG8CswKOrjsAGc0asX5YImP59_C-_ljakotah-HclEyZyYNDlT4eC2-u4ZdcEoG_ymTZ2o38nJsHEsrTvaXS9Gaar-k- -SLPlWWyG8xYAsP7PAEWJ_pS6tMmwBru7rcVGHrISgNLRNaci3vOQ3cYjXbuVyzCPbSoHc7qPdUR97soN_JgMg_MDpZ076ca5sIvNEhLfezSR7LsxZVYqVn6iOgNzk0O1p47BHhgRCgQY48E1dtr9pD-1wsDJSN7IFlHPYABrD4Vzw3TgQOJo7pSnZCIEguAt0wcmisjJjQZyBSfMDMR4t3o4WgJ0kC9AWabxns5LPBuCvlFWoCpOm_p-LqeII5MBRun3IxhBbE08jJXpaoOPGen3S2LzAuaXHUn8sH60njd9VugA5nx-9nwLP0xXfSXATaemTDp5mjLoembSoQDbHwLixh1ZUMR3rtstBWbcSZw5-quT6Z6QzTATWJh8cdJH9VKZ5ehRF9M2_-g_WwQ6j6CxgGB9z4LGY-Me5HONAz3uvH5NQldv2DzBEJTFJ2aRKMZwcT0rLFhlNjXdiEedLry-hjOBAPFS3O2lah_0G00]--></g></svg>

<svg xmlns="http://www.w3.org/2000/svg" width="409" height="925" viewBox="0 0 409 925"><rect width="395" height="284.461" x="7" y="633.84" fill="#3D176E" rx="2.5" ry="2.5" style="stroke:#000d19;stroke-width:.5"/><circle cx="78.25" cy="653.735" r="11" fill="#ADD1B2" style="stroke:#181818;stroke-width:1"/><path d="M81.219 659.375q-.578.297-1.219.438-.64.156-1.344.156-2.5 0-3.828-1.64-1.312-1.657-1.312-4.782t1.312-4.781q1.328-1.656 3.828-1.656.703 0 1.344.156.656.156 1.219.453v2.719q-.625-.578-1.219-.844-.594-.281-1.219-.281-1.344 0-2.031 1.078-.687 1.062-.687 3.156t.687 3.172q.688 1.062 2.031 1.062.625 0 1.219-.265.594-.281 1.219-.86z"/><text x="103.75" y="659.62" fill="#D9B8FF" font-family="Helvetica" font-size="17" textLength="234">aws_apigateway_authorizer</text><path d="M8 673.629h393" style="stroke:#000d19;stroke-width:.5"/><text x="18" y="695.624" fill="#D9B8FF" font-family="sans-serif" font-size="14" font-weight="bold" textLength="57">api_link</text><text x="75" y="695.624" fill="#D9B8FF" font-family="sans-serif" font-size="14" textLength="48">: string</text><text x="18" y="721.921" fill="#D9B8FF" font-family="sans-serif" font-size="14" font-weight="bold" textLength="166">authorizer_auth_type</text><text x="184" y="721.921" fill="#D9B8FF" font-family="sans-serif" font-size="14" textLength="48">: string</text><text x="18" y="748.218" fill="#D9B8FF" font-family="sans-serif" font-size="14" font-weight="bold" textLength="177">authorizer_credentials</text><text x="195" y="748.218" fill="#D9B8FF" font-family="sans-serif" font-size="14" textLength="48">: string</text><text x="18" y="774.515" fill="#D9B8FF" font-family="sans-serif" font-size="14" font-weight="bold" textLength="210">authorizer_identity_source</text><text x="228" y="774.515" fill="#D9B8FF" font-family="sans-serif" font-size="14" textLength="48">: string</text><text x="18" y="800.812" fill="#D9B8FF" font-family="sans-serif" font-size="14" font-weight="bold" textLength="325">authorizer_identity_validation_expression</text><text x="343" y="800.812" fill="#D9B8FF" font-family="sans-serif" font-size="14" textLength="48">: string</text><text x="18" y="827.109" fill="#D9B8FF" font-family="sans-serif" font-size="14" font-weight="bold" textLength="198">authorizer_provider_arns</text><text x="216" y="827.109" fill="#D9B8FF" font-family="sans-serif" font-size="14" textLength="58">: string[]</text><text x="18" y="853.405" fill="#D9B8FF" font-family="sans-serif" font-size="14" font-weight="bold" textLength="253">authorizer_result_ttl_in_seconds</text><text x="271" y="853.405" fill="#D9B8FF" font-family="sans-serif" font-size="14" textLength="44">: int64</text><text x="18" y="879.702" fill="#D9B8FF" font-family="sans-serif" font-size="14" font-weight="bold" textLength="124">authorizer_type</text><text x="142" y="879.702" fill="#D9B8FF" font-family="sans-serif" font-size="14" textLength="48">: string</text><text x="18" y="905.999" fill="#D9B8FF" font-family="sans-serif" font-size="14" font-weight="bold" textLength="110">authorizer_uri</text><text x="128" y="905.999" fill="#D9B8FF" font-family="sans-serif" font-size="14" textLength="48">: string</text><rect width="155" height="74.086" x="127" y="438.75" fill="#3D176E" rx="2.5" ry="2.5" style="stroke:#000d19;stroke-width:.5"/><circle cx="142" cy="458.644" r="11" fill="#ADD1B2" style="stroke:#181818;stroke-width:1"/><path d="M144.969 464.285q-.578.297-1.219.438-.64.156-1.344.156-2.5 0-3.828-1.64-1.312-1.657-1.312-4.782t1.312-4.781q1.328-1.656 3.828-1.656.703 0 1.344.156.656.156 1.219.453v2.719q-.625-.579-1.219-.844-.594-.281-1.219-.281-1.344 0-2.031 1.078-.687 1.062-.687 3.156t.687 3.172q.688 1.062 2.031 1.062.625 0 1.219-.265.594-.281 1.219-.86z"/><text x="161" y="464.53" fill="#D9B8FF" font-family="Helvetica" font-size="17" textLength="113">aws_resource</text><path d="M128 478.539h153" style="stroke:#000d19;stroke-width:.5"/><text x="138" y="500.534" fill="#D9B8FF" font-family="sans-serif" font-size="14" font-weight="bold" textLength="26">arn</text><text x="164" y="500.534" fill="#D9B8FF" font-family="sans-serif" font-size="14" textLength="48">: string</text><rect width="227" height="310.758" x="91" y="7" fill="#3D176E" rx="2.5" ry="2.5" style="stroke:#000d19;stroke-width:.5"/><circle cx="159.75" cy="26.895" r="11" fill="#ADD1B2" style="stroke:#181818;stroke-width:1"/><path d="M162.719 32.535q-.578.297-1.219.438-.64.156-1.344.156-2.5 0-3.828-1.64-1.312-1.657-1.312-4.782t1.312-4.781q1.328-1.656 3.828-1.656.703 0 1.344.156.656.156 1.219.453v2.719q-.625-.578-1.219-.844-.594-.281-1.219-.281-1.344 0-2.031 1.078-.687 1.062-.687 3.156t.687 3.172q.688 1.062 2.031 1.062.625 0 1.219-.265.594-.281 1.219-.86z"/><text x="185.25" y="32.78" fill="#D9B8FF" font-family="Helvetica" font-size="17" textLength="71">resource</text><path d="M92 46.789h225" style="stroke:#000d19;stroke-width:.5"/><text x="102" y="68.784" fill="#D9B8FF" font-family="sans-serif" font-size="14" font-weight="bold" textLength="29">age</text><text x="131" y="68.784" fill="#D9B8FF" font-family="sans-serif" font-size="14" textLength="66">: duration</text><text x="102" y="95.081" fill="#D9B8FF" font-family="sans-serif" font-size="14" font-weight="bold" textLength="43">atime</text><text x="145" y="95.081" fill="#D9B8FF" font-family="sans-serif" font-size="14" textLength="70">: datetime</text><text x="102" y="121.378" fill="#D9B8FF" font-family="sans-serif" font-size="14" font-weight="bold" textLength="43">ctime</text><text x="145" y="121.378" fill="#D9B8FF" font-family="sans-serif" font-size="14" textLength="70">: datetime</text><text x="102" y="147.675" fill="#D9B8FF" font-family="sans-serif" font-size="14" font-weight="bold" textLength="14">id</text><text x="116" y="147.675" fill="#D9B8FF" font-family="sans-serif" font-size="14" textLength="48">: string</text><text x="102" y="173.972" fill="#D9B8FF" font-family="sans-serif" font-size="14" font-weight="bold" textLength="33">kind</text><text x="135" y="173.972" fill="#D9B8FF" font-family="sans-serif" font-size="14" textLength="48">: string</text><text x="102" y="200.269" fill="#D9B8FF" font-family="sans-serif" font-size="14" font-weight="bold" textLength="90">last_access</text><text x="192" y="200.269" fill="#D9B8FF" font-family="sans-serif" font-size="14" textLength="66">: duration</text><text x="102" y="226.565" fill="#D9B8FF" font-family="sans-serif" font-size="14" font-weight="bold" textLength="90">last_update</text><text x="192" y="226.565" fill="#D9B8FF" font-family="sans-serif" font-size="14" textLength="66">: duration</text><text x="102" y="252.862" fill="#D9B8FF" font-family="sans-serif" font-size="14" font-weight="bold" textLength="48">mtime</text><text x="150" y="252.862" fill="#D9B8FF" font-family="sans-serif" font-size="14" textLength="70">: datetime</text><text x="102" y="279.159" fill="#D9B8FF" font-family="sans-serif" font-size="14" font-weight="bold" textLength="43">name</text><text x="145" y="279.159" fill="#D9B8FF" font-family="sans-serif" font-size="14" textLength="48">: string</text><text x="102" y="305.456" fill="#D9B8FF" font-family="sans-serif" font-size="14" font-weight="bold" textLength="34">tags</text><text x="136" y="305.456" fill="#D9B8FF" font-family="sans-serif" font-size="14" textLength="171">: dictionary[string, string]</text><path fill="none" d="M204.5 531.07v102.56m0-120.56-6 18h12zm0-176.9v102.34m0-120.34-6 18h12z" style="stroke:#ffaf37;stroke-width:2"/></svg>
